assets/svg/icon_2fa_phone_verification.svg

<svg width="81" height="80" viewBox="0 0 81 80" fill="none" xmlns="http://www.w3.org/2000/svg">
<path d="M34.8598 8.05313H23.3754C22.4348 8.05313 21.5988 7.45156 21.3004 6.55781L19.9473 2.5H38.2879L36.9348 6.55781C36.7892 6.99307 36.5106 7.37159 36.1383 7.63991C35.7659 7.90823 35.3187 8.05277 34.8598 8.05313Z" fill="#0166FF"/>
<path d="M13.007 19.0736V68.383C13.007 71.9705 15.9148 74.8783 19.5023 74.8783H36.4383C38.4117 74.8783 40.2555 75.8611 41.3555 77.5002H17.3648C13.5102 77.5002 10.3867 74.3752 10.3867 70.5221V14.1533C11.1932 14.696 11.854 15.4285 12.3109 16.2865C12.7678 17.1445 13.0069 18.1016 13.007 19.0736Z" fill="#E1EAF8"/>
<path d="M58.7812 64.1049H58.7766L56.975 62.3033L54.7078 64.7737C53.1188 66.5049 50.5547 66.9252 48.4953 65.794C46.3502 64.6151 44.3827 63.1385 42.6516 61.408L32.7156 51.4721C31.9712 50.7273 31.0715 50.1559 30.0808 49.7989C29.0901 49.4418 28.0328 49.3078 26.9844 49.4065L43.7484 66.1705C47.5062 69.9283 53.5984 69.9283 57.3562 66.1705L59.0984 64.4283L60.4594 63.0674C60.7453 62.7815 60.8766 62.4018 60.8594 62.0268L58.7812 64.1049Z" fill="#E1EAF8"/>
<path d="M54.7867 54.6766C54.0383 53.9281 52.818 53.9281 52.0695 54.6766L49.0445 57.7016C48.9168 57.83 48.7649 57.9318 48.5975 58.001C48.4301 58.0702 48.2506 58.1054 48.0695 58.1047C47.7023 58.1047 47.3555 57.9609 47.0961 57.7016L34.3227 44.9281C33.7852 44.3906 33.7852 43.5172 34.3227 42.9797L37.3477 39.9547C38.0961 39.2062 38.0961 37.9859 37.3477 37.2375L31.2883 31.1781C30.5398 30.4297 29.3195 30.4297 28.5711 31.1781L25.468 34.2797C24.9183 34.8288 24.4334 35.439 24.0227 36.0984C23.8633 36.3547 23.9414 36.6922 24.1977 36.8516C24.4539 37.0109 24.7914 36.9328 24.9508 36.6766C25.3148 36.0906 25.7492 35.5453 26.2414 35.0531L29.3445 31.9516C29.5008 31.7953 29.7086 31.7094 29.9305 31.7094C30.1523 31.7094 30.3602 31.7953 30.5164 31.9516L36.5758 38.0109C36.8992 38.3344 36.8992 38.8594 36.5758 39.1812L35.6023 40.1547L30.1852 34.7375C29.9711 34.5234 29.6258 34.5234 29.4117 34.7375C29.1977 34.9516 29.1977 35.2969 29.4117 35.5109L34.8289 40.9266L33.5508 42.2047C32.5867 43.1687 32.5867 44.7359 33.5508 45.7L46.3242 58.4734C46.7914 58.9406 47.4117 59.1969 48.0711 59.1969C48.7305 59.1969 49.3523 58.9391 49.818 58.4734L52.843 55.4484C52.9992 55.2922 53.207 55.2063 53.4289 55.2063C53.6508 55.2063 53.8586 55.2922 54.0148 55.4484L60.0742 61.5078C60.3977 61.8312 60.3977 62.3563 60.0742 62.6781L59.1008 63.6516L53.8133 58.3641C53.5992 58.15 53.2539 58.15 53.0398 58.3641C52.8258 58.5781 52.8258 58.9234 53.0398 59.1375L58.3273 64.425L56.9727 65.7797C53.4336 69.3187 47.6758 69.3187 44.1367 65.7797L26.2414 47.8891C24.2258 45.8734 23.2867 43.0953 23.6633 40.2672C23.6728 40.196 23.6682 40.1236 23.6497 40.0542C23.6312 39.9847 23.5992 39.9197 23.5555 39.8626C23.5118 39.8056 23.4573 39.7577 23.3951 39.7218C23.3329 39.6858 23.2642 39.6625 23.193 39.6531C23.1217 39.6435 23.0493 39.648 22.9798 39.6664C22.9103 39.6849 22.8452 39.7169 22.7881 39.7606C22.7311 39.8043 22.6832 39.8588 22.6473 39.9211C22.6114 39.9834 22.5881 40.0522 22.5789 40.1234C22.157 43.2922 23.2102 46.4047 25.468 48.6641L43.3617 66.5578C44.507 67.7031 45.8617 68.5172 47.3039 69V70.5234C47.3039 74.0703 44.418 76.9547 40.8727 76.9547H17.3648C13.818 76.9547 10.9336 74.0687 10.9336 70.5234V9.47813C10.9336 5.93125 13.8195 3.04688 17.3648 3.04688H40.8727C44.4195 3.04688 47.3039 5.93281 47.3039 9.47813V12.7313C47.3039 13.0328 47.5492 13.2781 47.8508 13.2781C48.1523 13.2781 48.3977 13.0328 48.3977 12.7313V9.47813C48.3977 5.32812 45.0211 1.95312 40.8727 1.95312H17.3648C13.2148 1.95312 9.83984 5.32969 9.83984 9.47813V70.5203C9.83984 74.6703 13.2164 78.0453 17.3648 78.0453H40.8727C45.0227 78.0453 48.3977 74.6687 48.3977 70.5203V69.2969C49.107 69.45 49.8305 69.5297 50.5523 69.5297C53.157 69.5297 55.7602 68.5391 57.743 66.5563L59.4836 64.8156L60.8445 63.4547C61.593 62.7062 61.593 61.4859 60.8445 60.7375L54.7867 54.6766Z" fill="#9A9A9A"/>
<path d="M75.6042 47.2015C75.5073 47.2015 75.4105 47.1765 75.3214 47.1218L71.8417 45.0124C71.5839 44.8562 71.5011 44.5202 71.6573 44.2608C71.8136 44.003 72.1495 43.9202 72.4089 44.0765L75.8886 46.1858C75.9906 46.248 76.0695 46.3418 76.1132 46.4529C76.157 46.564 76.1633 46.6864 76.1311 46.8014C76.0989 46.9164 76.03 47.0177 75.9349 47.0899C75.8398 47.1622 75.7237 47.2013 75.6042 47.2015ZM61.9964 55.5874C61.7214 55.5874 61.4839 55.3796 61.4542 55.0999L61.0073 51.0562C60.9994 50.9849 61.0057 50.9127 61.0256 50.8438C61.0456 50.7749 61.079 50.7106 61.1238 50.6546C61.1687 50.5986 61.2241 50.552 61.2869 50.5174C61.3498 50.4828 61.4189 50.4609 61.4902 50.453C61.5615 50.4449 61.6338 50.4509 61.7028 50.4708C61.7718 50.4906 61.8362 50.524 61.8923 50.5689C61.9483 50.6137 61.995 50.6693 62.0295 50.7323C62.064 50.7952 62.0857 50.8644 62.0933 50.9358L62.5402 54.9796C62.5481 55.0509 62.5418 55.1231 62.5219 55.192C62.5019 55.2609 62.4685 55.3252 62.4237 55.3812C62.3788 55.4372 62.3234 55.4838 62.2606 55.5184C62.1977 55.553 62.1287 55.5748 62.0573 55.5827C62.037 55.5858 62.0167 55.5874 61.9964 55.5874ZM72.1261 19.3499C72.0066 19.3499 71.8904 19.3108 71.7952 19.2386C71.7 19.1663 71.6311 19.065 71.5988 18.9499C71.5666 18.8349 71.5729 18.7124 71.6168 18.6013C71.6606 18.4901 71.7396 18.3964 71.8417 18.3343L75.3214 16.2249C75.5792 16.0687 75.9167 16.1515 76.073 16.4093C76.2292 16.6671 76.1464 17.0046 75.8886 17.1608L72.4089 19.2702C72.3198 19.3249 72.2214 19.3499 72.1261 19.3499ZM61.5511 12.8999C61.5308 12.8999 61.5105 12.8983 61.4902 12.8968C61.4188 12.889 61.3497 12.8673 61.2867 12.8327C61.2238 12.7982 61.1683 12.7515 61.1235 12.6955C61.0786 12.6395 61.0453 12.5751 61.0253 12.5062C61.0054 12.4372 60.9993 12.365 61.0073 12.2937L61.4542 8.24991C61.462 8.17856 61.4838 8.10944 61.5183 8.04652C61.5529 7.98361 61.5995 7.92813 61.6555 7.88327C61.7116 7.83842 61.7759 7.80507 61.8449 7.78513C61.9138 7.76519 61.986 7.75906 62.0573 7.7671C62.3573 7.79991 62.5745 8.07022 62.5402 8.37022L62.0933 12.414C62.0783 12.5474 62.0147 12.6706 61.9147 12.7602C61.8148 12.8498 61.6853 12.8995 61.5511 12.8999Z" fill="#0166FF"/>
<path d="M55.4457 16C47.1926 16 40.502 22.6906 40.502 30.9437C40.502 39.1969 47.1926 45.8875 55.4457 45.8875C63.6988 45.8875 70.3895 39.1969 70.3895 30.9437C70.3895 22.6906 63.6988 16 55.4457 16Z" fill="#0166FF"/>
<path d="M49.502 31.1667L53.6686 35.3333L62.002 27" stroke="white" stroke-width="2" stroke-linecap="round" stroke-linejoin="round"/>
</svg>

<svg xmlns="http://www.w3.org/2000/svg" width="81" height="80" fill="none"><path fill="#0166FF" d="M34.86 8.053H23.375c-.94 0-1.776-.601-2.075-1.495L19.947 2.5h18.34l-1.352 4.058a2.19 2.19 0 0 1-2.075 1.495"/><path fill="#E1EAF8" d="M13.007 19.074v49.309a6.495 6.495 0 0 0 6.495 6.495h16.936c1.974 0 3.817.983 4.917 2.622h-23.99a6.98 6.98 0 0 1-6.978-6.978V14.153a5.93 5.93 0 0 1 2.62 4.92"/><path fill="#E1EAF8" d="M58.781 64.105h-.004l-1.802-1.802-2.267 2.47a5.1 5.1 0 0 1-6.213 1.021 26 26 0 0 1-5.843-4.386l-9.936-9.936a7.16 7.16 0 0 0-5.732-2.065L43.748 66.17a9.62 9.62 0 0 0 13.608 0l1.742-1.743 1.361-1.36c.286-.286.418-.666.4-1.041z"/><path fill="#9A9A9A" d="M54.787 54.677a1.925 1.925 0 0 0-2.718 0l-3.025 3.025a1.37 1.37 0 0 1-.974.403 1.37 1.37 0 0 1-.974-.403L34.323 44.928a1.38 1.38 0 0 1 0-1.948l3.025-3.025a1.925 1.925 0 0 0 0-2.718l-6.06-6.059a1.925 1.925 0 0 0-2.717 0l-3.103 3.102a10.2 10.2 0 0 0-1.445 1.818.547.547 0 0 0 .928.579 9 9 0 0 1 1.29-1.624l3.104-3.101a.82.82 0 0 1 .585-.243c.222 0 .43.086.586.243l6.06 6.059a.827.827 0 0 1 0 1.17l-.974.974-5.417-5.418a.546.546 0 1 0-.773.774l5.417 5.416-1.278 1.278a2.474 2.474 0 0 0 0 3.495l12.773 12.773a2.45 2.45 0 0 0 1.747.724c.66 0 1.281-.258 1.747-.724l3.025-3.025a.82.82 0 0 1 .586-.242c.222 0 .43.086.586.242l6.06 6.06a.827.827 0 0 1 0 1.17l-.974.974-5.288-5.288a.546.546 0 1 0-.773.774l5.287 5.287-1.354 1.355c-3.54 3.539-9.297 3.539-12.836 0L26.24 47.89a9.02 9.02 0 0 1-2.578-7.623.546.546 0 1 0-1.084-.144 10.1 10.1 0 0 0 2.889 8.541l17.894 17.894A10.1 10.1 0 0 0 47.304 69v1.523a6.44 6.44 0 0 1-6.431 6.432H17.365a6.44 6.44 0 0 1-6.431-6.432V9.478a6.44 6.44 0 0 1 6.43-6.431h23.509a6.44 6.44 0 0 1 6.43 6.431v3.253a.547.547 0 0 0 1.095 0V9.478c0-4.15-3.377-7.525-7.525-7.525H17.365c-4.15 0-7.525 3.377-7.525 7.525V70.52c0 4.15 3.376 7.525 7.525 7.525h23.508c4.15 0 7.525-3.376 7.525-7.525v-1.223c.709.153 1.432.233 2.154.233 2.605 0 5.208-.99 7.191-2.974l1.74-1.74 1.361-1.361a1.925 1.925 0 0 0 0-2.718z"/><path fill="#0166FF" d="M75.604 47.202a.54.54 0 0 1-.283-.08l-3.48-2.11a.548.548 0 0 1 .568-.935l3.48 2.109a.548.548 0 0 1-.285 1.016m-13.608 8.385a.546.546 0 0 1-.542-.487l-.447-4.044a.548.548 0 0 1 .885-.487.54.54 0 0 1 .201.367l.447 4.044a.55.55 0 0 1-.544.607m10.13-36.237a.548.548 0 0 1-.284-1.016l3.48-2.11a.548.548 0 0 1 .567.937l-3.48 2.11a.54.54 0 0 1-.283.079M61.551 12.9l-.06-.003a.546.546 0 0 1-.484-.603l.447-4.044a.547.547 0 1 1 1.086.12l-.447 4.044a.547.547 0 0 1-.542.486M55.446 16c-8.253 0-14.944 6.69-14.944 14.944 0 8.253 6.69 14.944 14.944 14.944 8.253 0 14.944-6.691 14.944-14.944S63.698 16 55.445 16"/><path stroke="#fff" stroke-linecap="round" stroke-linejoin="round" stroke-width="2" d="m49.502 31.167 4.167 4.166L62.002 27"/></svg>
